web/packages/design/src/ResourceIcon/assets/googleanalytics.svg

<svg width="72" height="72" viewBox="0 0 72 72" fill="none" xmlns="http://www.w3.org/2000/svg">
<g clip-path="url(#clip0_15942_7488)">
<path d="M49.9102 8.5914V62.5914C49.9102 68.6337 54.0788 72.0005 58.5011 72.0005C62.592 72.0005 67.092 69.1369 67.092 62.5914V9.00049C67.092 3.4614 63.0011 0.000488281 58.5011 0.000488281C54.0011 0.000488281 49.9102 3.81731 49.9102 8.5914Z" fill="#F9AB00"/>
<path d="M27.4102 36.0006V62.5915C27.4102 68.6338 31.5788 72.0006 36.0011 72.0006C40.092 72.0006 44.592 69.1369 44.592 62.5915V36.4097C44.592 30.8706 40.5011 27.4097 36.0011 27.4097C31.5011 27.4097 27.4102 31.2265 27.4102 36.0006Z" fill="#E37400"/>
<path d="M13.5011 72.0007C18.2457 72.0007 22.092 68.1544 22.092 63.4098C22.092 58.6651 18.2457 54.8188 13.5011 54.8188C8.75644 54.8188 4.91016 58.6651 4.91016 63.4098C4.91016 68.1544 8.75644 72.0007 13.5011 72.0007Z" fill="#E37400"/>
</g>
<defs>
<clipPath id="clip0_15942_7488">
<rect width="72" height="72" fill="white" transform="translate(0 0.000488281)"/>
</clipPath>
</defs>
</svg>

<svg xmlns="http://www.w3.org/2000/svg" width="72" height="72" fill="none" viewBox="0 0 72 72"><g clip-path="url(#a)"><path fill="#f9ab00" d="M49.91 8.591v54c0 6.043 4.169 9.41 8.591 9.41 4.091 0 8.591-2.864 8.591-9.41V9.001c0-5.54-4.09-9-8.59-9S49.91 3.816 49.91 8.59"/><path fill="#e37400" d="M27.41 36v26.592c0 6.042 4.169 9.409 8.591 9.409 4.091 0 8.591-2.864 8.591-9.41V36.41c0-5.54-4.09-9-8.59-9S27.41 31.227 27.41 36M13.501 72a8.59 8.59 0 1 0 0-17.181 8.59 8.59 0 0 0 0 17.182"/></g><defs><clipPath id="a"><path fill="#fff" d="M0 0h72v72H0z"/></clipPath></defs></svg>
